!!!!SEGMENT: pl-kk--kk-i-10--017_anonim--patrem-omnipotentem.krn
!!!cenid: 16xx:1210
!!!COM: Anonim
!!!COM-rismID: pe30004985
!!!CDT:
!!!CNT:
!!!OTL: Patrem omnipotentem
!!!PDT:
!!!AGN: Sacred
!!!SMS-siglum: PL-Kk
!!!SMS-shelfmark: Kk.I.10
!!!SMS-shelfwork: 017 W
!!!SMS-variant:
!!!SMS-altvar:
!!!NIFC-rismSourceID: 1001153969
!!!NIFC-islandoraID: pl-kk:2434
!!!URL-pdf-islandora: https://repozytorium.nifc.pl/islandora/object/pl-kk%3A2434/datastream/PDF/view
!!!URL-scan: https://polish.musicsources.pl/pl/lokalizacje/galeria/rekopisy/5737 @EN{Scan on Polish Music Sources Website} @PL{Skany w portalu Dziedzictwo Muzyki Polskiej w otwartym dostępie}
!!!ONB-nifc: UWAGA: A (skan 0028-0030), T (0077-0078), B (0127-0129).
!!!AIN: 1 alto 1 empty 1 tenor
!!!key:
**kern	**text	**kern	**text	**kern	**text
*part3	*part3	*part2	*part2	*part1	*part1
*staff3	*staff3	*staff2	*staff2	*staff1	*staff1
*Iempty	*	*Itenor	*	*Ialto	*
*I"[Baſsus]	*	*I"[Tenor]	*	*I"[Altus]	*
*I'B	*	*I'T	*	*I'A	*
*clefF4	*	*clefC4	*	*clefC3	*
*k[b-]	*	*k[b-]	*	*k[b-]	*
*F:	*	*F:	*	*F:	*
*M2/1	*	*M2/1	*	*M2/1	*
*met(c|)	*	*met(c|)	*	*met(c|)	*
*all\right	*	*all\right	*	*all\right	*
*2\right	*	*2\right	*	*2\right	*
*MM300	*	*MM300	*	*MM300	*
=1-	=1-	=1-	=1-	=1-	=1-
!LO:TX:t=Sequitur Patrem Adwentowe	!	!LO:TX:t=Patrem Adwentowe Sequit(ur)	!	!LO:TX:t=Patrem pro Adventu Sequitur	!
2FF/	Pa-	2F/	Pa-	2f\	Pa-
!	!	!LO:TX:t=P:problem=kreska pseudotaktowa	!	!	!
!LO:TX:t=P:problem=kreska pseudotaktowa	!	!	!	!	!
2AA/	-trem	2c\	-trem	(4f\	-trem
!	!	!	!	!LO:TX:t=P:problem=kreska pseudotaktowa	!
.	.	.	.	4e\)	.
(2BB-/	O-	(2d\	O-	(4d\	O-
.	.	.	.	4e\)	.
2AA/)	.	2c\)	.	1f\	-mni-
=2-	=2-	=2-	=2-	=2-	=2-
2D/	-mni-	2f\	-mni-	.	.
!LO:TX:t=P:problem=kreska pseudotaktowa	!	!LO:TX:t=P:problem=kreska pseudotaktowa	!	!LO:TX:t=P:problem=kreska pseudotaktowa	!
2C/	-po-	2e\	-po-	2g\	-po-
1G	-ten-	1d	-ten-	4g\	-ten-
.	.	.	.	4a\	.
.	.	.	.	4g\	.
.	.	.	.	4f\	.
=3-	=3-	=3-	=3-	=3-	=3-
!LO:TX:t=P:problem=kreska pseudotaktowa	!	!LO:TX:t=P:problem=kreska pseudotaktowa	!	!LO:TX:t=P:problem=kreska pseudotaktowa	!
1C;	-tem	1c;	-tem	1e;	-tem
!LO:TX:t=P:problem=2\right&colon; global	!	!	!	!	!
2F\	fa-	2c\	fa-	(4a\	fa-
.	.	.	.	4g\)	.
!LO:TX:t=P:problem=kreska pseudotaktowa	!	!	!	!	!
2BB-/	-cto-	2d\	-cto-	(4f\	-cto-
!	!	!	!	!LO:TX:t=P:problem=kreska pseudotaktowa	!
.	.	.	.	4g\)	.
=4	=4	=4-	=4-	=4	=4
!	!	!LO:TX:t=P:problem=kreska pseudotaktowa	!	!	!
1FF	-rem	1c	-rem	2a\	-rem
.	.	.	.	2.a\	Cae-
!LO:TX:t=P:problem=kreska pseudotaktowa	!	!	!	!	!
1GG	Cae-	1B-	Cae-	.	.
.	.	.	.	4d\	-li
!	!	!	!	!LO:TX:t=P::problem=kreska pseudotaktowa&colon;między nutą a kropką	!
.	.	.	.	2.g\	Cae-
=5	=5	=5-	=5-	=5	=5
2.AA/	-li	2.A/	-li	.	.
.	.	.	.	4c/	-li
!	!	!	!	!LO:TX:t=P:problem=kreska pseudotaktowa	!
.	.	.	.	2f\	et
!	!	!LO:TX:t=P:problem=kreska pseudotaktowa	!	!	!
4BB-/	et	4G/	et	.	.
!	!	!LO:N:vis=1.	!	!	!
1C	ter-	1G	ter-	(2f\	ter-
.	.	.	.	2e\)	.
=6-	=6-	=6-	=6-	=6-	=6-
!LO:TX:t=P:problem=kreska pseudotaktowa	!	!LO:TX:t=P:problem=kreska pseudotaktowa	!	!LO:TX:t=P:problem=kreska pseudotaktowa	!
1FF;	-rae	1F;	-rae	1f;	-rae
!	!	!	!	!LO:PB:g=original	!
2F\	Vi-	2c\	Vi-	2f\	Vi-
*custos:B-	*	*	*	*	*
!LO:TX:t=P:problem=kreska pseudotaktowa	!	!	!	!	!
!	!	!LO:TX:t=P:problem=kreska pseudotaktowa	!	!	!
2A\	-ſi-	2c\	-ſi-	(4f\	-ſi-
!	!	!	!	!LO:TX:t=P:problem=kreska pseudotaktowa	!
.	.	.	.	4e\)	.
=7	=7	=7-	=7-	=7	=7
!LO:PB:g=original	!	!	!	!	!
4B-\	-bi-	1d	-bi-	(4d\	-bi-
4c\	.	.	.	4c\)	.
4B-\	.	.	.	2B-/	-li-
4A\	.	.	.	.	.
!LO:TX:t=P:problem=kreska pseudotaktowa	!	!	!	!	!
1G	.	1B-	-li-	(2d\	-um
!	!	!LO:PB:g=original	!	!LO:TX:t=P:problem=kreska pseudotaktowa	!
.	.	.	.	2g\)	.
=8	=8	=8-	=8-	=8	=8
2F\	-li-	4c\	-um	2a\	O-
.	.	4d\	.	.	.
!	!	!LO:TX:t=P:problem=kreska pseudotaktowa	!	!	!
2C/	-um	2e-X\	O-	2g\	.
2.G\	O-	2.d\	.	2.g\	.
4G\	-mni-	4c\	-mni-	4g\	-mni-
=9-	=9-	=9-	=9-	=9-	=9-
!LO:TX:t=P:problem=kreska pseudotaktowa	!	!LO:TX:t=P:problem=kreska pseudotaktowa	!	!LO:TX:t=P:problem=kreska pseudotaktowa	!
1C	-um	1c;<	-um	1e;	-um
2BB-/	et	2f\	Et	2d\	Et
!	!	!LO:TX:t=P:problem=kreska pseudotaktowa	!	!	!
2C/	in-	2e-X\	in-	2e-X\	in-
=10-	=10-	=10	=10	=10-	=10-
2.D/	-Vi-	1d	-Vi-	2.f\	-vi-
4E\	-ſi-	.	.	4g\	-ſi-
!LO:TX:t=P:problem=kreska pseudotaktowa	!	!LO:TX:t=P:problem=kreska pseudotaktowa	!	!LO:TX:t=P:problem=kreska pseudotaktowa	!
1F	-bi-	1c	-ſi-	1a	-bi-
=11	=11	=11	=11	=11	=11
2.BB-/	.	2.d\	-bi-	2.f\	.
4FF/	.	4c\	.	4a\	.
2GG/	.	2B-\	.	4d\	.
.	.	.	.	4e\	.
!	!	!LO:TX:t=P:problem=kreska pseudotaktowa	!	!LO:TX:t=P:problem=kreska pseudotaktowa	!
4AA/	.	2A/	.	[2f\	.
!LO:TX:t=P:problem=kreska pseudotaktowa	!	!	!	!	!
4BB-/	.	.	.	.	.
=12	=12	=12-	=12-	=12	=12
2.C/	.	2.G/	.	2f\]	.
.	.	.	.	2e\	-li-
4C/	-li-	4F/	-li-	.	.
!LO:TX:t=P:problem=kreska pseudotaktowa	!	!LO:TX:t=P:problem=kreska pseudotaktowa	!	!LO:TX:t=P:problem=kreska pseudotaktowa	!
1FF;	-um	1F;	-um	1f;<	-um
=13	=13	=13	=13	=13	=13
2F\	Et	2F/	Et	2a\	Et
!	!	!	!	!LO:TX:t=P:problem=kreska pseudotaktowa	!
2A\	in	2F/	in	2a\	in
!	!	!	!	!LO:LB:g=original	!
2F\	V-	2A\	V-	2a\	V-
!LO:TX:t=P:problem=kreska pseudotaktowa	!	!LO:TX:t=P:problem=kreska pseudotaktowa	!	!LO:TX:t=P:problem=kreska pseudotaktowa	!
2G\	-num	2B-\	-num	2g\	-num
=14	=14	=14	=14	=14	=14
!LO:LB:g=original	!	!	!	!	!
2.C/	Do-	2.c\	Do-	2.g\	Do-
4C/	-mi-	4c\	-mi-	4g\	-mi-
!LO:TX:t=P:problem=kreska pseudotaktowa	!	!LO:TX:t=P:problem=kreska pseudotaktowa	!	!LO:TX:t=P:problem=kreska pseudotaktowa	!
1C;	-num	1c	-num	1g;<	-num
=15	=15	=15	=15	=15	=15
!	!	!LO:LB:g=original	!	!	!
2BB-/	Je-	2d\	No-	2g\	No-
!	!	!	!	!LO:TX:t=P:problem=kreska pseudotaktowa	!
2C/	.	2e\	-ſtrum	2g\	-ſtrum
2D/	.	2f\	Je-	(4f\	Je-
.	.	.	.	4g\)	.
!LO:TX:t=P:problem=kreska pseudotaktowa	!	!LO:TX:t=P:problem=kreska pseudotaktowa	!	!	!
2AA/	-ſum	2c\	-ſum	(4a\	-ſum
.	.	.	.	4c\)	.
=16	=16	=16	=16	=16-	=16-
2FF/	Chri-	(2A\	Chri-	(4f\	Chri-
.	.	.	.	4e\)	.
!	!	!LO:N:acc=#	!	!	!
2GG/	.	2Bn\)	.	(4d\	.
.	.	.	.	4g\)	.
!LO:TX:t=P:problem=kreska pseudotaktowa	!	!LO:TX:t=P:problem=kreska pseudotaktowa	!	!LO:TX:t=P:problem=kreska pseudotaktowa	!
1C;	-ſtum	1c	-ſtum	1e;	-ſtum
=17	=17	=17	=17	=17	=17
2G\	Fi-	2B-\	Fi-	2d\	Fi-
4E\	-li-	4G/	-li-	4g\	-li-
!LO:TX:t=P:problem=kreska pseudotaktowa	!	!LO:TX:t=P:problem=kreska pseudotaktowa	!	!	!
4E\	-um	4G/	-um	4g\	-um
2F\	De-	2A/	De-	2c\	De-
4D\	.	2B-/	.	(1f\	.
4E\	.	.	.	.	.
=18-	=18-	=18-	=18-	=18-	=18-
2F\	.	2A/	.	.	.
2C/	.	2G/	.	2e\)	.
!LO:TX:t=P:problem=kreska pseudotaktowa	!	!LO:TX:t=P:problem=kreska pseudotaktowa	!	!LO:TX:t=P:problem=kreska pseudotaktowa	!
1FF;	-i	1F;	-i	1f	-i
=19	=19	=19	=19	=19	=19
2C/	V-	2E/	V-	2g\	V-
!LO:TX:t=P:problem=kreska pseudotaktowa	!	!	!	!	!
2D/	-ni-	2F/	-ni-	2f\	-ni-
2E\	-ge-	2G/	-ge-	4e\	-ge-
.	.	.	.	4d\	.
!LO:TX:t=P:problem=kreska pseudotaktowa	!	!LO:TX:t=P:problem=kreska pseudotaktowa	!	!LO:TX:t=P:problem=kreska pseudotaktowa	!
2F\	.	2A/	.	2c\	.
=20	=20	=20	=20	=20	=20
!	!	!	!	!LO:LB:g=original	!
2C/	.	2G/	.	2e\	.
8D/L	.	2F/	.	8f\L	.
8C/J	.	.	.	8e\J	.
!LO:N:acc=#	!	!	!	!LO:TX:t=P:problem=kreska pseudotaktowa	!
4BBn/	.	.	.	4d\	.
!LO:LB:g=original	!	!	!	!	!
4C/	.	1E	.	2e\	.
4BB-/	.	.	.	.	.
4AA/	.	.	.	4f\	.
!LO:TX:t=P:problem=kreska pseudotaktowa	!	!	!	!	!
4GG/	.	.	.	4g\	.
=21	=21	=21-	=21-	=21-	=21-
2FF/	-ni-	2.D/	.	2a\	.
2GG/	.	.	.	4g\	-ni-
.	.	4C/	-ni-	4f\	.
!LO:TX:t=P:problem=kreska pseudotaktowa	!	!LO:TX:t=P:problem=kreska pseudotaktowa	!	!LO:TX:t=P:problem=kreska pseudotaktowa	!
1C;	-tum	1C;	-tum	1e;	-tum
=22	=22	=22	=22	=22	=22
!	!	!LO:LB:g=original	!	!	!
2F\	Et	2F/	et	2a\	Et
2E\	ex	2G/	ex	8g\L	ex
.	.	.	.	8f\	.
.	.	.	.	8e\	.
!	!	!	!	!LO:TX:t=P:problem=kreska pseudotaktowa	!
.	.	.	.	8d\J	.
2F\	Pa-	2A/	Pa-	2c/	Pa-
!LO:TX:t=P:problem=kreska pseudotaktowa	!	!LO:TX:t=P:problem=kreska pseudotaktowa	!	!	!
2D/	-tre	2F/	-tre	2f\	-tre
=23	=23	=23	=23	=23	=23
4C/	Na-	(1.c	Na-	4e\	Na-
4D/	.	.	.	4d\	.
4E\	.	.	.	4e\	.
!	!	!	!	!LO:TX:t=P:problem=kreska pseudotaktowa	!
4F\	.	.	.	4f\	.
1G	.	.	.	1g	-tum
!	!	!LO:N:acc=#	!	!	!
.	.	2Bn\)	.	.	.
=24-	=24-	=24-	=24-	=24-	=24-
!LO:TX:t=P:problem=kreska pseudotaktowa	!	!LO:TX:t=P:problem=kreska pseudotaktowa	!	!LO:TX:t=P:problem=kreska pseudotaktowa	!
1C;	-tum	1c;<	-tum	1e;<	.
2.F\	an-	2F/	An-	2a\	an-
!	!	!	!	!LO:TX:t=P:problem=kreska pseudotaktowa	!
.	.	2G/	-te	2g\	-te
4E\	-te	.	.	.	.
=25-	=25-	=25-	=25-	=25	=25
2F\	O-	2A/	O-	2f\	O-
4BB-/	-mni-	4B-\	-mni-	4d\	-mni-
!LO:TX:t=P:problem=kreska pseudotaktowa	!	!LO:TX:t=P:problem=kreska pseudotaktowa	!	!	!
4C/	.	4B-\	-a	4e\	.
2D/	-a	(1A	ſae-	2f\	-a
(4AA/	ſae-	.	.	1f\	ſae-
!LO:TX:t=P:problem=kreska pseudotaktowa	!	!	!	!	!
4BB-/)	.	.	.	.	.
=26	=26	=26-	=26-	=26-	=26-
2.C/	.	2.G/)	.	.	.
.	.	.	.	2e\	-cu-
4C/	-cu-	4F/	-cu-	.	.
!LO:TX:t=P:problem=kreska pseudotaktowa	!	!LO:TX:t=P:problem=kreska pseudotaktowa	!	!LO:LB:g=original	!
1FF;	-la	1F;	-la	1f	-la
=27	=27	=27	=27	=27-	=27-
!LO:LB:g=original	!	!	!	!	!
1F	De-	1A	De-	1f	De-
2D\	-um	2F/	-um	2a\	-um
!LO:TX:t=P:problem=kreska pseudotaktowa	!	!LO:TX:t=P:problem=kreska pseudotaktowa	!	!LO:TX:t=P:problem=kreska pseudotaktowa	!
2E\	de	2G/	de	2g\	de
=28	=28	=28	=28	=28	=28
2F\	De-	2A/	De-	2f\	De-
!LO:TX:t=P:problem=kreska pseudotaktowa	!	!	!	!	!
2D/	-o	2F/	-o	2a\	-o
(4C/	lu-	2c\	lu-	(4e\	lu-
4D/)	.	.	.	4f\)	.
(4E/	-men	2c\	-men	(4g\	-men
!LO:TX:t=P:problem=kreska pseudotaktowa	!	!	!	!LO:TX:t=P:problem=kreska pseudotaktowa	!
4C/)	.	.	.	4e\)	.
=29	=29	=29-	=29-	=29-	=29-
(4D\	de	(4B-\	de	2d\	de
4E\)	.	4A\	.	.	.
2F\	.	4G\	.	2.c/	lu-
.	.	4F\)	.	.	.
!	!	!LO:LB:g=original	!	!	!
2.C/	lu-	2.G/	lu-	.	.
.	.	.	.	4d/	.
.	.	.	.	4c/	-mi-
4C/	-mi-	4G/	-mi-	4B-/	.
=30-	=30-	=30-	=30-	=30-	=30-
!LO:TX:t=P:problem=kreska pseudotaktowa	!	!LO:TX:t=P:problem=kreska pseudotaktowa	!	!LO:TX:t=P:problem=kreska pseudotaktowa	!
1FF;	-ne	1A;	-ne	1A;	-ne
1F	De-	1A	De-	1f	De-
=31-	=31-	=31-	=31-	=31-	=31-
2F\	-um	2F/	-um	2a\	-um
!LO:TX:t=P:problem=kreska pseudotaktowa	!	!LO:TX:t=P:problem=kreska pseudotaktowa	!	!LO:TX:t=P:problem=kreska pseudotaktowa	!
2C/	Ve-	2G/	Ve-	2g\	Ve-
2FF/	-rum	2A/	-rum	2f\	-rum
2F\	de	2F/	de	2a\	de
=32-	=32-	=32-	=32-	=32-	=32-
2F\	De-	2c\	De-	2f\	De-
!LO:TX:t=P:problem=kreska pseudotaktowa	!	!	!	!LO:TX:t=P:problem=kreska pseudotaktowa	!
2F\	-o	2c\	-o	2f\	-o
4BB-/	Ve-	(4B-\	Ve-	4d\	Ve-
4C/	.	4A\	.	4e\	.
2D/	.	4G\	.	[2f\	.
.	.	4F\)	.	.	.
=33-	=33-	=33-	=33-	=33-	=33-
1C	.	1G	.	2f\]	.
.	.	.	.	2e\	-ro
!LO:TX:t=P:problem=kreska pseudotaktowa	!	!LO:TX:t=P:problem=kreska pseudotaktowa	!	!LO:TX:t=P:problem=kreska pseudotaktowa	!
1FF;	-ro	1A	-ro	1f;	.
=34	=34	=34	=34	=34	=34
!LO:LB:g=original	!	!	!	!LO:LB:g=original	!
2.C/	Ge-	2.G/	Ge-	2.e\	Ge-
4C/	-ni-	4G/	-ni-	4e\	-ni-
2E\	-tum	2G/	-tum	2g\	-tum
!LO:TX:t=P:problem=kreska pseudotaktowa	!	!LO:TX:t=P:problem=kreska pseudotaktowa	!	!LO:TX:t=P:problem=kreska pseudotaktowa	!
2C/	Non	2G/	Non	2e\	Non
=35	=35	=35	=35	=35	=35
4F\	fa-	4A/	fa-	4f\	fa-
4F\	-ctum	4A/	-ctum	4f\	-ctum
4D/	Con-	4F/	Con-	4a\	Con-
!LO:TX:t=P:problem=kreska pseudotaktowa	!	!LO:TX:t=P:problem=kreska pseudotaktowa	!	!	!
4D/	-ſub-	4F/	-ſub-	4a\	-ſub-
!LO:N:acc=n	!	!	!	!	!
2.BBn/	-ſtan-	2.G/	-ſtan-	2.d\	-ſtan-
!	!	!	!	!LO:TX:t=P:problem=kreska pseudotaktowa	!
4C/	-ti-	4G/	-ti-	4e\	-ti-
=36-	=36-	=36-	=36-	=36	=36
(4AA/	-a-	2F/	-a-	(4c\	-a-
4BB-/)	.	.	.	4d\)	.
!LO:TX:t=P:problem=kreska pseudotaktowa	!	!	!	!	!
2C/	-lem	2E/	-lem	(4e\	-lem
.	.	.	.	4f\)	.
!	!	!LO:LB:g=original	!	!	!
1GG	Pa-	1D	Pa-	4g\	Pa-
.	.	.	.	4a\	.
.	.	.	.	4g\	.
.	.	.	.	4f\	.
=37-	=37-	=37-	=37-	=37-	=37-
!LO:TX:t=P:problem=kreska pseudotaktowa	!	!LO:TX:t=P:problem=kreska pseudotaktowa	!	!LO:TX:t=P:problem=kreska pseudotaktowa	!
1C;	-tri	1C;	-tri	1e;	-tri
2.F\	-per	2.A/	-per	2.c/	-per
!LO:TX:t=P:problem=kreska pseudotaktowa	!	!	!	!	!
4D/	quem	4F/	quem	4f\	quem
=38	=38	=38-	=38-	=38-	=38-
2BB-/	O-	2B-\	O-	2d\	O-
4FF/	-mni-	4A/	-mni-	4f\	-mni-
!	!	!LO:TX:t=P:problem=kreska pseudotaktowa	!	!LO:TX:t=P:problem=kreska pseudotaktowa	!
4FF/	-a	4A/	-a	4f\	-a
2.C/	fa-	2.G/	fa-	2.f\	fa-
4C/	-cta	4G/	-cta	4e\	-cta
=39-	=39-	=39-	=39-	=39-	=39-
!LO:TX:t=P:problem=kreska pseudotaktowa	!	!LO:TX:t=P:problem=kreska pseudotaktowa	!	!LO:TX:t=P:problem=kreska pseudotaktowa	!
1FF;	ſunt	1F;	ſunt	1f;<	ſunt
2FF/	Qui	2F/	Qui	2f\	Qui
1F\	prop-	(2.c\	prop-	1f\	prop-
=40-	=40-	=40-	=40-	=40-	=40-
.	.	.	.	.	.
.	.	4B-\)	.	.	.
!	!	!	!	!LO:TX:t=P:problem=kreska pseudotaktowa	!
(4E\	-ter	(4c\	-ter	2c/	-ter
!LO:TX:t=P:problem=kreska pseudotaktowa	!	!LO:TX:t=P:problem=kreska pseudotaktowa	!	!	!
4D\)	.	4d\)	.	.	.
!	!	!	!	!LO:LB:g=original	!
2C/	Nos	2e\	Nos	2g\	Nos
2.F\	ho-	2.f\	ho-	4f\	.
.	.	.	.	4g\	.
=41-	=41-	=41-	=41-	=41-	=41-
!LO:LB:g=original	!	!	!	!LO:TX:t=P:problem=brak zgodności pionów w takcie	!
.	.	.	.	2a-X\	Ho-
4G\	.	4e\	.	.	.
!LO:TX:t=P:problem=kreska pseudotaktowa	!	!	!	!	!
2A-X\	.	4d\	.	4e-X\	.
!	!	!	!	!LO:TX:t=P:problem=kreska pseudotaktowa	!
.	.	4c\	.	4f\	.
2.G\	.	2.d\	.	4g\	.
.	.	.	.	4a-\	.
.	.	.	.	4g\	-mi-
4G\	-mi-	4d\	-mi-	4f\	.
=42-	=42-	=42-	=42-	=42-	=42-
!LO:TX:t=P:problem=kreska pseudotaktowa	!	!LO:TX:t=P:problem=kreska pseudotaktowa	!	!LO:TX:t=P:problem=kreska pseudotaktowa	!
1C;	-nes	1c;<	-nes	1e;	-nes
2A-X\	et	2c\	et	2e-X\	et
1F\	prop-	1A-X\	prop-	1f\	prop-
=43-	=43-	=43-	=43-	=43-	=43-
.	.	.	.	.	.
!LO:TX:t=P:problem=kreska pseudotaktowa	!	!	!	!LO:TX:t=P:problem=kreska pseudotaktowa	!
2E-X\	-ter	2B-\	-ter	2g\	-ter
!	!	!LO:LB:g=original	!	!	!
2AA-X/	No-	2c\	No-	2a-X\	No-
2.BB-/	-ſtram	2.B-\	-ſtram	2.g\	-ſtram
=44-	=44-	=44-	=44-	=44-	=44-
.	.	.	.	.	.
4C/	.	4A-X/	.	4f\	ſa-
!LO:TX:t=P:problem=kreska pseudotaktowa	!	!	!	!	!
2D-X/	ſa-	4G/	.	(1f	-lu-
!	!	!LO:TX:t=P:problem=kreska pseudotaktowa	!	!	!
.	.	4F/	Sa-	.	.
2.C/	.	2.G/	-lu-	.	.
.	.	.	.	2e\)	.
4C/	-lu-	4F/	.	.	.
=45-	=45-	=45-	=45-	=45-	=45-
!LO:TX:t=P:problem=kreska pseudotaktowa	!	!LO:TX:t=P:problem=kreska pseudotaktowa	!	!LO:TX:t=P:problem=kreska pseudotaktowa	!
1FF;	-tem	1F;	-tem	1f	-tem
2.F\	de-	2.A-X/	de-	2.c/	de-
!LO:TX:t=P:problem=kreska pseudotaktowa	!	!LO:TX:t=P:problem=kreska pseudotaktowa	!	!	!
4F\	-ſcen-	4A-/	-ſcen-	4c/	-ſcen-
=46	=46	=46	=46	=46	=46
4E-X\	-dit	2B-\	-dit	2e-X\	-dit
4D-X\	.	.	.	.	.
!LO:TX:t=P:problem=kreska pseudotaktowa	!	!	!	!LO:TX:t=P:problem=kreska pseudotaktowa	!
2C/	de	2c\	de	2e-X\	de
2BB-/	Cae-	4d-X\	Cae-	1f	Cae-
.	.	4c\	.	.	.
4C/	.	4B-\	.	.	.
!LO:TX:t=P:problem=kreska pseudotaktowa	!	!LO:TX:t=P:problem=kreska pseudotaktowa	!	!	!
4D-X/	.	4A-X/	.	.	.
=47	=47	=47	=47	=47	=47
!LO:LB:g=original	!	!	!	!	!
1E-X	.	1B-	.	4e-X\	.
.	.	.	.	4f\	.
.	.	.	.	4e-\	.
.	.	.	.	4d-X\	.
!LO:TX:t=P:problem=kreska pseudotaktowa	!	!LO:TX:t=P:problem=kreska pseudotaktowa	!	!LO:TX:t=P:problem=kreska pseudotaktowa	!
1AA-X;	-lis	1A-X;	-lis	1c;	-lis
=48	=48	=48	=48	=48	=48
!	!	!	!	!LO:LB:g=original	!
1C	Et	1G	Et	1e-X	Et
2F\	in-	2A-X/	in-	2f\	in-
!LO:TX:t=P:problem=kreska pseudotaktowa	!	!LO:TX:t=P:problem=kreska pseudotaktowa	!	!LO:TX:t=P:problem=kreska pseudotaktowa	!
2F\	-car-	2A-/	-car-	2f\	-car-
=49	=49	=49	=49	=49	=49
2.E-X\	-na-	2.B-\	-na-	2.g\	-na-
!LO:TX:t=P:problem=kreska pseudotaktowa	!	!LO:TX:t=P:problem=kreska pseudotaktowa	!	!	!
4E-\	-tus	4B-\	-tus	4g\	-tus
2AA-X/	eſt	2c\	eſt	2a-X\	eſt
!	!	!	!	!LO:TX:t=P:problem=kreska pseudotaktowa	!
2AA-/	de	2c\	de	2a-X\	de
!	!	!LO:LB:g=original	!	!	!
=50-	=50-	=50-	=50-	=50	=50
2BB-/	ſpi-	2B-\	Spi-	2g\	ſpi-
!LO:N:acc=#	!	!	!	!	!
4BBn/	-ri-	4A-X/	-ri-	4f\	-ri-
!LO:TX:t=P:problem=kreska pseudotaktowa	!	!LO:TX:t=P:problem=kreska pseudotaktowa	!	!LO:TX:t=P:problem=kreska pseudotaktowa	!
4C/	-tu	4G/	-tu	4f\	-tu
1C	ſan-	1G	ſan-	(2f\	ſan-
.	.	.	.	2e\)	.
=51-	=51-	=51-	=51-	=51-	=51-
!LO:TX:t=P:problem=kreska pseudotaktowa	!	!LO:TX:t=P:problem=kreska pseudotaktowa	!	!LO:TX:t=P:problem=kreska pseudotaktowa	!
1FF;	-cto	1F;	-cto	1f	-cto
2.F\	Ex	2.A-X\	Ex	2.f\	Ex
!	!	!LO:TX:t=P:problem=kreska pseudotaktowa	!	!	!
4F\	Ma-	4A-X\	Ma-	4f\	Ma-
=52-	=52-	=52	=52	=52-	=52-
(4E-X\	-ri-	2B-\	-ri-	2g\	-ri-
4D-X/)	.	.	.	.	.
!LO:TX:t=P:problem=kreska pseudotaktowa	!	!	!	!LO:TX:t=P:problem=kreska pseudotaktowa	!
2C/	-a	2c\	-a	2a-X\	-a
4BB-/	Vir-	4d-X\	Vir-	4f\	Vir-
4AA-X/	.	4c\	.	4g\	.
!	!	!	!	!LO:TX:t=P:problem=kreska pseudotaktowa	!
4GG/	.	4B-\	.	2a-X\	.
!	!	!LO:TX:t=P:problem=kreska pseudotaktowa	!	!	!
4FF/	.	4A-X\	.	.	.
=53-	=53-	=53	=53	=53	=53
2.EE-X/	.	2.B-\	.	2a-X\	.
.	.	.	.	2g\	-gi-
4EE-/	-gi-	4B-\	-gi-	.	.
!LO:TX:t=P:problem=kreska pseudotaktowa	!	!LO:TX:t=P:problem=kreska pseudotaktowa	!	!LO:TX:t=P:problem=kreska pseudotaktowa	!
1AA-X;	-ne	1A-X;	-ne	1a-X;<	-ne
=54	=54	=54	=54	=54	=54
!LO:PB:g=original	!	!	!	!LO:PB:g=original	!
1C	Et	1G	Et	1e-X	Et
2AA-X/	ho-	(4A-X\	Ho-	(4f\	Ho-
.	.	4B-\)	.	4g\)	.
!LO:TX:t=P:problem=kreska pseudotaktowa	!	!LO:TX:t=P:problem=kreska pseudotaktowa	!	!LO:TX:t=P:problem=kreska pseudotaktowa	!
2FF/	-mo	2c\	-mo	2a-X\	-mo
=55	=55	=55	=55	=55	=55
4BB-/	fa-	4B-/	fa-	2g\	fa-
4C/	.	4A-X/	.	.	.
!LO:TX:t=P:problem=kreska pseudotaktowa	!	!	!	!	!
2D-X/	.	4G/	.	1f	.
!	!	!LO:TX:t=P:problem=kreska pseudotaktowa	!	!	!
.	.	4F/	.	.	.
2.C/	.	2.G/	.	.	.
.	.	.	.	2e\	-ctus
4C/	-ctus	4G/	-ctus	.	.
=56-	=56-	=56-	=56-	=56-	=56-
!LO:TX:t=P:problem=kreska pseudotaktowa	!	!LO:TX:t=P:problem=kreska pseudotaktowa	!	!LO:TX:t=P:problem=kreska pseudotaktowa	!
1FF;	eſt	1F;	eſt	1f;<	eſt
!LO:TX:a:t=P:problem=♮ above	!	!LO:PB:g=original	!	!	!
2.Fn\	Cru-	2.c\	Cru-	2.f\	Cru-
!	!	!	!	!LO:TX:t=P:problem=kreska pseudotaktowa	!
4F\	-ci-	4c\	-ci-	4f\	-ci-
=57-	=57-	=57-	=57-	=57	=57
2F\	-fi-	2c\	-fi-	2f\	-fi-
!LO:TX:t=P:problem=kreska pseudotaktowa	!	!LO:TX:t=P:problem=kreska pseudotaktowa	!	!	!
2BB-/	-xus	2d\	-xus	(4d\	-xus
!	!	!	!	!LO:TX:t=P:problem=kreska pseudotaktowa	!
.	.	.	.	4e\)	.
2.FF/	e-	2.c\	e-	2.f\	e-
!	!	!	!	!LO:TX:t=P:problem=kreska pseudotaktowa	!
4FF/	-ti-	4c\	-ti-	4f\	-ti-
=58-	=58-	=58-	=58-	=58	=58
2GG/	-am	2B-\	-am	2d\	-am
!	!	!LO:TX:t=P:problem=kreska pseudotaktowa	!	!	!
4AA/	pro	2A/	pro	(4c\	pro
!LO:TX:t=P:problem=kreska pseudotaktowa	!	!	!	!	!
4BB-/	.	.	.	4d\)	.
1C	No-	1G	No-	(4c\	No-
.	.	.	.	4d\)	.
.	.	.	.	(4c\	.
.	.	.	.	4B-\)	.
=59-	=59-	=59-	=59-	=59-	=59-
!LO:TX:t=P:problem=kreska pseudotaktowa	!	!LO:TX:t=P:problem=kreska pseudotaktowa	!	!LO:TX:t=P:problem=kreska pseudotaktowa	!
1FF;	-bis	1F;	-bis	1A;	-bis
2AA/	Sub	2c\	ſub	2f\	Sub
2FF/	pon-	2A\	Pon-	2f\	Pon-
=60-	=60-	=60-	=60-	=60-	=60-
2GG/	-ti-	2B-\	-ti-	(4e-X\	-ti-
.	.	.	.	4d\)	.
!LO:TX:t=P:problem=kreska pseudotaktowa	!	!LO:TX:t=P:problem=kreska pseudotaktowa	!	!	!
2AA/	-o	2c\	-o	(4c\	-o
!	!	!	!	!LO:TX:t=P:problem=kreska pseudotaktowa	!
.	.	.	.	4f\)	.
!	!	!	!	!LO:LB:g=original	!
(2BB-/	Pi-	2d\	Pi-	(4d\	Pi-
.	.	.	.	4e-\)	.
2AA/)	.	2c\	.	1f\	-la-
!LO:LB:g=original	!	!	!	!	!
=61-	=61-	=61-	=61-	=61-	=61-
(2D/	-la-	2f\	.	.	.
!	!	!LO:TX:t=P:problem=kreska pseudotaktowa	!	!LO:TX:t=P:problem=kreska pseudotaktowa	!
2C/)	.	2e\	.	2g\	.
1GG	.	1d	-la-	4g\	.
.	.	.	.	4a\	.
.	.	.	.	4g\	.
.	.	.	.	4f\	.
=62-	=62-	=62-	=62-	=62-	=62-
!LO:TX:t=P:problem=kreska pseudotaktowa	!	!LO:TX:t=P:problem=kreska pseudotaktowa	!	!LO:TX:t=P:problem=kreska pseudotaktowa	!
1C;	-to	1c;	-to	1e;<	-to
2.F\	Paſ-	2.c\	paſ-	2.f\	paſ-
4F\	-sus	4c\	-sus	4f\	-sus
=63-	=63-	=63-	=63-	=63-	=63-
2A\	et	(2c\	et	(4f\	et
.	.	.	.	4e\)	.
!	!	!LO:TX:t=P:problem=kreska pseudotaktowa	!	!	!
!LO:TX:t=P:problem=kreska pseudotaktowa	!	!LO:TX:t=P:problem=usunięta sylaba ſe-	!	!LO:TX:t=P:problem=kreska pseudotaktowa	!
2B-\	ſe-	2d\)	.	2d\	ſe-
!	!	!LO:LB:g=original	!	!	!
1F	-pul-	1c	Se-	1a	.
=64-	=64-	=64-	=64-	=64-	=64-
2G\	.	2B-\	-pul-	4d\	.
.	.	.	.	4e\	.
!LO:TX:t=P:problem=kreska pseudotaktowa	!	!LO:TX:t=P:problem=kreska pseudotaktowa	!	!LO:TX:t=P:problem=kreska pseudotaktowa	!
2F\	.	2A/	.	2f\	-pul-
2.C/	.	2.G/	.	2f\	.
.	.	.	.	2e\	-tus
4C/	-tus	4F/	-tus	.	.
=65-	=65-	=65-	=65-	=65-	=65-
!LO:TX:t=P:problem=kreska pseudotaktowa	!	!LO:TX:t=P:problem=kreska pseudotaktowa	!	!LO:TX:t=P:problem=kreska pseudotaktowa	!
1FF;	eſt	1F;	eſt	1f;	eſt
2F\	Et	2F/	Et	2f\	Et
4A\	re-	4c\	re-	4f\	re-
!LO:TX:t=P:problem=kreska pseudotaktowa	!	!LO:TX:t=P:problem=kreska pseudotaktowa	!	!LO:TX:t=P:problem=kreska pseudotaktowa	!
4A\	-ſur-	4c\	-ſur-	4e\	-ſur-
=66	=66	=66	=66	=66	=66
2B-\	-re-	2d\	-re-	(4d\	-re-
.	.	.	.	4e\)	.
!	!	!	!	!LO:TX:t=P:problem=kreska pseudotaktowa	!
2A\	-xit	2c\	-xit	2f\	-xit
!LO:N:acc=#	!	!	!	!	!
2Bn\	ter-	2f\	ter-	2d\	ter-
4c\	-ti-	4e\	-ti-	4e\	-ti-
!LO:TX:t=P:problem=kreska pseudotaktowa	!	!LO:TX:t=P:problem=kreska pseudotaktowa	!	!LO:LB:g=original	!
4F#X\	-a	4d\	-a	4a\	-a
=67	=67	=67	=67	=67-	=67-
1G	di-	1d	di-	4g\	di-
.	.	.	.	4a\	.
.	.	.	.	4g\	.
.	.	.	.	4f\	.
!LO:TX:t=P:problem=kreska pseudotaktowa	!	!LO:TX:t=P:problem=kreska pseudotaktowa	!	!LO:TX:t=P:problem=kreska pseudotaktowa	!
1C;	-e	1c;	-e	1e;	-e
=68	=68	=68	=68	=68	=68
2FF/	ſe-	(2c\	Se-	2a\	Se-
2BB-/	-cun-	2d\)	.	(4f\	-cun-
!	!	!	!	!LO:TX:t=P:problem=kreska pseudotaktowa	!
.	.	.	.	4g\)	.
!LO:LB:g=original	!	!LO:TX:t=P:problem=kreska pseudotaktowa	!	!	!
1FF	-dum	1c	-cun-	1a	-dum
=69-	=69-	=69	=69	=69-	=69-
2GG/	ſcri-	2B-\	-dum	(4d\	ſcri-
.	.	.	.	4e\)	.
(4AA/	.	2A/	ſcri-	[2f\	-ptu-
!LO:TX:t=P:problem=kreska pseudotaktowa	!	!	!	!	!
4BB-/)	.	.	.	.	.
1C	-ptu-	1G	-ptu-	2f]	.
.	.	.	.	2e\	.
=70-	=70-	=70-	=70-	=70-	=70-
!LO:TX:t=P:problem=kreska pseudotaktowa	!	!LO:TX:t=P:problem=kreska pseudotaktowa	!	!LO:TX:t=P:problem=kreska pseudotaktowa	!
1FF;	-ras	1F;	-ras	1f;	-ras
2F\	Et	2c\	Et	2f\	et
!LO:TX:t=P:problem=kreska pseudotaktowa	!	!LO:TX:t=P:problem=kreska pseudotaktowa	!	!	!
2A\	a-	2c\	a-	(4f\	a-
!	!	!	!	!LO:TX:t=P:problem=kreska pseudotaktowa	!
.	.	.	.	4e\)	.
=71	=71	=71	=71	=71	=71
!	!	!LO:LB:g=original	!	!	!
4B-\	-ſcen-	1d	-ſcen-	(4d\	-ſcen-
4c\	.	.	.	4e\)	.
4B-\	.	.	.	2f\	-dit
!LO:TX:t=P:problem=kreska pseudotaktowa	!	!	!	!	!
4A\	.	.	.	.	.
!	!	!LO:TX:t=P:problem=kreska pseudotaktowa	!	!	!
4G\	.	1B-	-dit	2.g\	in
4F\	.	.	.	.	.
4E\	.	.	.	.	.
!LO:TX:t=P:problem=kreska pseudotaktowa	!	!	!	!	!
4D\	.	.	.	4f\	.
=72	=72	=72	=72	=72-	=72-
2.C/	-dit	(4c\	in	4e-X\	Cae-
.	.	4d\)	.	4f\	.
.	.	2e-X\	Cae-	2.g\	.
4C/	in	.	.	.	.
1G	Cae-	1d	.	.	.
.	.	.	.	4a\	.
.	.	.	.	4g\	.
.	.	.	.	4f\	.
=73-	=73-	=73-	=73-	=73-	=73-
!LO:TX:t=P:problem=kreska pseudotaktowa	!	!LO:TX:t=P:problem=kreska pseudotaktowa	!	!LO:TX:t=P:problem=kreska pseudotaktowa	!
1C;	-lum	1c;	-lum	1e;	-lum
!	!	!	!	!LO:LB:g=original	!
2BB-/	Se-	2f\	ſe-	2d\	Se-
!	!	!	!	!LO:TX:t=P:problem=kreska pseudotaktowa	!
2C/	-det	2e-X\	-det	2e-X\	-det
=74-	=74-	=74-	=74-	=74	=74
4D/	ad	1d	ad	4f\	ad
4C/	.	.	.	4e-X\	.
4D/	.	.	.	4f\	.
!LO:TX:t=P:problem=kreska pseudotaktowa	!	!	!	!	!
4E/	.	.	.	4g\	.
!	!	!LO:TX:t=P:problem=kreska pseudotaktowa	!	!LO:TX:t=P:problem=kreska pseudotaktowa	!
1F	.	1c	.	1a	.
=75-	=75-	=75	=75	=75	=75
2.BB-/	dex-	(2.d\	dex-	2.f\	dex-
4FF/	-te-	4c\)	.	4f\	-te-
!LO:LB:g=original	!	!	!	!	!
2GG/	-ram	2B-\	-te-	(4d\	-ram
.	.	.	.	4e\)	.
!	!	!LO:TX:t=P:problem=kreska pseudotaktowa	!	!LO:TX:t=P:problem=kreska pseudotaktowa	!
(4AA/	.	2A/	-ram	[2f\	Pa-
!LO:TX:t=P:problem=kreska pseudotaktowa	!	!	!	!	!
4BB-/)	.	.	.	.	.
=76	=76	=76	=76	=76	=76
1C	Pa-	1G	Pa-	2f\]	.
.	.	.	.	2e\	.
!LO:TX:t=P:problem=kreska pseudotaktowa	!	!LO:TX:t=P:problem=kreska pseudotaktowa	!	!LO:TX:t=P:problem=kreska pseudotaktowa	!
1FF;	-tris	1F;	-tris	1f;	-tris
=77	=77	=77	=77	=77	=77
1F	Et	1A	Et	1c	Et
2D/	i-	2F/	i-	2f\	i-
!LO:TX:t=P:problem=kreska pseudotaktowa	!	!LO:TX:t=P:problem=kreska pseudotaktowa	!	!	!
2C/	-te-	2G/	-te-	(4e\	-te-
!	!	!	!	!LO:TX:t=P:problem=kreska pseudotaktowa	!
.	.	.	.	4d\)	.
=78	=78	=78	=78	=78	=78
2F\	-rum	2A/	-rum	2c\	-rum
2D/	Ven-	2F/	Ven-	2f\	Ven-
2C/	-tu-	2c\	-tu-	2g\	-tu-
!LO:TX:t=P:problem=kreska pseudotaktowa	!	!LO:TX:t=P:problem=kreska pseudotaktowa	!	!LO:TX:t=P:problem=kreska pseudotaktowa	!
2AA/	-rus	2c\	-rus	2a\	-rus
=79	=79	=79	=79	=79	=79
!	!	!LO:LB:g=original	!	!	!
2BB-/	eſt	(4B-\	eſt	(4d\	eſt
.	.	4A\)	.	4e\)	.
2D/	cum	(4G/	cum	2f\	cum
!	!	!LO:TX:t=P:problem=kreska pseudotaktowa	!	!	!
.	.	4F/)	.	.	.
2.C/	glo-	2.G/	glo-	2.f\	glo-
4C/	-ri-	4G/	-ri-	4e\	-ri-
=80-	=80-	=80-	=80-	=80-	=80-
!LO:TX:t=P:problem=kreska pseudotaktowa	!	!LO:TX:t=P:problem=kreska pseudotaktowa	!	!LO:TX:t=P:problem=kreska pseudotaktowa	!
1FF;	-a	1A;	-a	1f;	-a
!	!	!	!	!LO:LB:g=original	!
2.C/	Iu-	2.G/	Iu-	2.e\	iu-
4C/	-di-	4G/	-di-	4e\	-di-
=81-	=81-	=81-	=81-	=81-	=81-
!LO:N:acc=#	!	!	!	!	!
2BBn/	-ca-	2G/	-ca-	2d\	-ca-
!LO:TX:t=P:problem=kreska pseudotaktowa	!	!LO:TX:t=P:problem=kreska pseudotaktowa	!	!LO:TX:t=P:problem=kreska pseudotaktowa	!
2C/	-re	2G/	-re	2e\	-re
2F\	Vi-	2A/	Vi-	2f\	Vi-
2BB/	-uos	2F/	-uos	2d\	-uos
=82-	=82-	=82-	=82-	=82-	=82-
!	!	!LO:TX:t=P:problem=kreska pseudotaktowa	!	!	!
1GG	et	1G	et	2g\	et
!	!	!	!	!LO:TX:t=P:problem=kreska pseudotaktowa	!
.	.	.	.	2B-/	.
4AA/	Mor-	2F/	Mor-	4c\	Mor-
4BB-/	.	.	.	4d\	.
2C/	.	2E/	.	4e\	.
.	.	.	.	4f\	.
!LO:LB:g=original	!	!	!	!	!
=83-	=83-	=83-	=83-	=83-	=83-
2.GG/	.	2.D/	.	2.g\	-tu-
4GG/	-tu-	4C/	-tu-	4f\	.
!LO:TX:t=P:problem=kreska pseudotaktowa	!	!LO:TX:t=P:problem=kreska pseudotaktowa	!	!LO:TX:t=P:problem=kreska pseudotaktowa	!
1C;	-os	1C;	-os	1e	-os
=84	=84	=84	=84	=84	=84
1F	Cu-	1A	Cu-	1c	Cu-
2D/	-ius	2F/	-ius	2d\	-ius
!LO:TX:t=P:problem=kreska pseudotaktowa	!	!LO:TX:t=P:problem=kreska pseudotaktowa	!	!LO:TX:t=P:problem=kreska pseudotaktowa	!
2C/	re-	2G/	re-	2e\	re-
=85	=85	=85	=85	=85	=85
2F\	-gni	2A/	-gni	2f\	-gni
2FF/	Non	2F/	Non	2a\	Non
2F\	e-	2c\	e-	2a\	e-
!LO:TX:t=P:problem=kreska pseudotaktowa	!	!LO:LB:g=original	!	!LO:TX:t=P:problem=kreska pseudotaktowa	!
2F\	-rit	2c\	-rit	2a\	-rit
=86	=86	=86-	=86-	=86	=86
4BB-/	fi-	4B-\	fi-	4d\	fi-
4C/	.	4A\	.	4e\	.
4D/	.	4G/	.	1f	.
!	!	!LO:TX:t=P:problem=kreska pseudotaktowa	!	!	!
4BB-/	.	4F/	.	.	.
1C	.	1G	.	.	.
.	.	.	.	2e\	.
=87-	=87-	=87-	=87-	=87-	=87-
!LO:TX:t=P:problem=kreska pseudotaktowa	!	!LO:TX:t=P:problem=kreska pseudotaktowa	!	!LO:TX:t=P:problem=kreska pseudotaktowa	!
1F;	-nis	1A;	-nis	1f;	-nis
!	!	!	!	!LO:LB:g=original	!
2.c\	Et	2.c\	Et	2.e\	Et
4F\	in	4c\	in	4f\	in
=88-	=88-	=88-	=88-	=88-	=88-
2.B-\	ſpi-	2.d\	ſpi-	2.f\	ſpi-
!	!	!LO:TX:t=P:problem=kreska pseudotaktowa	!	!LO:TX:t=P:problem=kreska pseudotaktowa	!
4d\	-ri-	4d\	-ri-	4d\	-ri-
!LO:TX:t=P:problem=kreska pseudotaktowa	!	!	!	!	!
1c;<	-tum	1e	-tum	1g	-tum
=89	=89	=89-	=89-	=89-	=89-
2F\	ſan-	2f\	San-	2a\	San-
!	!	!LO:TX:t=P:problem=kreska pseudotaktowa	!	!LO:TX:t=P:problem=kreska pseudotaktowa	!
(4A\	-ctum	2f\	-ctum	2a\	-ctum
!LO:TX:t=P:problem=kreska pseudotaktowa	!	!	!	!	!
4B-\)	.	.	.	.	.
2.c\	Do-	2.f\	Do-	2.g\	Do-
4c\	-mi-	4e\	-mi-	4g\	-mi-
=90-	=90-	=90-	=90-	=90-	=90-
!LO:TX:t=P:problem=kreska pseudotaktowa	!	!LO:TX:t=P:problem=kreska pseudotaktowa	!	!LO:TX:t=P:problem=kreska pseudotaktowa	!
1F;	-num	1f;<	-num	1f;<	-num
!LO:LB:g=original	!	!	!	!	!
1F	et	1f	Et	1a	et
=91-	=91-	=91-	=91-	=91-	=91-
!LO:TX:t=P:problem=kreska pseudotaktowa	!	!	!	!	!
1G	Vi-	(2e\	Vi-	(2g\	Vi-
!	!	!LO:TX:t=P:problem=kreska pseudotaktowa	!	!LO:TX:t=P:problem=kreska pseudotaktowa	!
.	.	2d\)	.	2f\)	.
2.A\	-ui-	(2.c\	-ui-	2e\	-ui-
.	.	.	.	2a\	-fi-
4B-\	-fi-	4d\)	.	.	.
=92-	=92-	=92-	=92-	=92-	=92-
2c\	-can-	(2e\	-fi-	(2g\	-can-
!	!	!LO:TX:t=P:problem=kreska pseudotaktowa	!	!LO:TX:t=P:problem=kreska pseudotaktowa	!
2d\	.	2f\)	.	2f\)	.
1c	.	2f\	-can-	1g	-tem
.	.	2e\	.	.	.
=93-	=93-	=93-	=93-	=93-	=93-
!LO:TX:t=P:problem=kreska pseudotaktowa	!	!LO:TX:t=P:problem=kreska pseudotaktowa	!	!LO:TX:t=P:problem=kreska pseudotaktowa	!
1F;<	-tem	1f;<	-tem	1a;<	.
!	!	!LO:LB:g=original	!	!	!
2F\	Qui	2f\	qui	2f\	Qui
!	!	!LO:TX:t=P:problem=kreska pseudotaktowa	!	!LO:TX:t=P:problem=kreska pseudotaktowa	!
2F\	ex	2f\	ex	2a\	ex
=94-	=94-	=94	=94	=94	=94
2.A\	Pa-	2.f\	Pa-	2.a\	Pa-
!LO:TX:t=P:problem=kreska pseudotaktowa	!	!LO:TX:t=P:problem=kreska pseudotaktowa	!	!	!
4A\	-tre	4e\	-tre	4g\	-tre
(4B-\	Fi-	2d\	Fi-	(4f\	Fi-
4G\)	.	.	.	4g\)	.
!	!	!	!	!LO:TX:t=P:problem=usunięta sylaba -q(ue)	!
(4A\	-li-	1c\	-li-	4e\	-li-
!	!	!	!	!LO:TX:t=P:problem=kreska pseudotaktowa	!
4F\)	.	.	.	4a\	.
=95-	=95-	=95-	=95-	=95	=95
!LO:TX:t=P:problem=kreska pseudotaktowa	!	!	!	!LO:LB:g=original	!
1G	-o-	.	.	1g	-o-
!	!	!LO:TX:t=P:problem=kreska pseudotaktowa	!	!	!
!	!	!LO:N:acc=#	!	!	!
.	.	2Bn\	-o-	.	.
2C/	-q(ue)	2c\	-q(ue)	2e\	-q(ue)
!	!	!	!	!LO:TX:t=P:problem=kreska pseudotaktowa	!
2BB-/	pro-	2d\	pro-	2f\	pro-
=96-	=96-	=96-	=96-	=96	=96
1C	-ce-	1c	-ce-	2f\	-ce-
.	.	.	.	2e\	.
!LO:TX:t=P:problem=kreska pseudotaktowa	!	!LO:TX:t=P:problem=kreska pseudotaktowa	!	!LO:TX:t=P:problem=kreska pseudotaktowa	!
1F;	-dit	1c;<	-dit	1f;<	-dit
=97	=97	=97	=97	=97	=97
2F\	Qui	2F/	Qui	2c/	Qui
!LO:TX:t=P:problem=kreska pseudotaktowa	!	!LO:TX:t=P:problem=kreska pseudotaktowa	!	!LO:TX:t=P:problem=kreska pseudotaktowa	!
2F\	cum	2F/	cum	2f\	cum
2F\	Pa-	2A\	Pa-	2a\	Pa-
4D/	-tre	4B-\	-tre	4f\	-tre
!	!	!	!	!LO:TX:t=P:problem=kreska pseudotaktowa	!
4D/	et	4B-\	et	4f\	et
!LO:LB:g=original	!	!	!	!	!
=98-	=98-	=98-	=98-	=98	=98
2.C/	Fi-	2.c\	Fi-	2.g\	Fi-
4C/	-li-	4c\	-li-	4g\	-li-
!LO:TX:t=P:problem=kreska pseudotaktowa	!	!LO:TX:t=P:problem=kreska pseudotaktowa	!	!LO:TX:t=P:problem=kreska pseudotaktowa	!
1C;	-o	1c	-o	1g;<	-o
=99	=99	=99	=99	=99	=99
2BB-/	Si-	2d\	ſi-	2f\	ſi-
2C/	-mul	2e\	-mul	2e\	-mul
2D/	a-	2f\	a-	2d\	a-
!LO:TX:t=P:problem=kreska pseudotaktowa	!	!LO:TX:t=P:problem=kreska pseudotaktowa	!	!LO:TX:t=P:problem=kreska pseudotaktowa	!
2A\	-do-	2c\	-do-	2e\	-do-
=100	=100	=100	=100	=100	=100
(2F\	-ra-	(2A\	-ra-	2a\	-ra-
!	!	!LO:N:acc=#	!	!	!
2G\)	.	2Bn\)	.	4g\	.
.	.	.	.	4f\	.
!LO:TX:t=P:problem=kreska pseudotaktowa	!	!LO:TX:t=P:problem=kreska pseudotaktowa	!	!LO:TX:t=P:problem=kreska pseudotaktowa	!
1C;	-tur	1c;	-tur	1e	-tur
=101	=101	=101	=101	=101	=101
!	!	!LO:LB:g=original	!	!	!
2G\	et	2B-\	et	2d\	et
!	!	!LO:TX:t=P:problem=kreska pseudotaktowa	!	!LO:TX:t=P:problem=kreska pseudotaktowa	!
2E\	Con-	2G/	Con-	2g\	Con-
2F\	-glo-	2A/	-glo-	2f\	-glo-
(4BB-/	-ri-	2B-/	-ri-	4d\	-ri-
!LO:TX:t=P:problem=kreska pseudotaktowa	!	!	!	!	!
4C/)	.	.	.	4e\	-fi-
=102	=102	=102-	=102-	=102-	=102-
4D/	-fi-	2A/	-fi-	2.f\	-ca-
4AA/	.	.	.	.	.
2C/	-ca-	2G/	-ca-	.	.
.	.	.	.	4e\	.
!LO:TX:t=P:problem=kreska pseudotaktowa	!	!	!	!	!
!LO:TX:b:t=Verte	!	!LO:TX:t=P:problem=kreska pseudotaktowa	!	!LO:TX:t=P:problem=kreska pseudotaktowa	!
1FF;	-tur	1F;	-tur	1f;	-tur
=103	=103	=103	=103	=103	=103
!LO:PB:g=original	!	!	!	!LO:PB:g=original	!
2C/	Qui	2E/	Qui	2g\	Qui
!LO:TX:t=P:problem=kreska pseudotaktowa	!	!	!	!LO:TX:t=P:problem=kreska pseudotaktowa	!
2D/	lo-	2F/	lo-	2f\	lo-
4.E\	-cu-	4.G/	-cu-	4.e\	-cu-
8C/	-tus	8G/	-tus	8e\	-tus
!LO:TX:t=P:problem=kreska pseudotaktowa	!	!LO:TX:t=P:problem=kreska pseudotaktowa	!	!LO:TX:t=P:problem=kreska pseudotaktowa	!
2F\	eſt	2A/	eſt	2c/	eſt
=104	=104	=104	=104	=104	=104
(4E/	per	2G/	per	4c/	per
4C/)	.	.	.	4e\	.
!	!	!	!	!LO:TX:t=P:problem=kreska pseudotaktowa	!
(4D/	Pro-	2F/	Pro-	2d\	.
4BB-/)	.	.	.	.	.
4C/	-phae-	2E/	-phae-	2e\	Pro-
4AA/	.	.	.	.	.
4FF/	.	2D/	.	2g\	-phae-
4GG/	.	.	.	.	.
=105-	=105-	=105-	=105-	=105-	=105-
!LO:TX:t=P:problem=kreska pseudotaktowa	!	!LO:TX:t=P:problem=kreska pseudotaktowa	!	!LO:TX:t=P:problem=kreska pseudotaktowa	!
1C;	-tas	1C;	-tas	1e;<	-tas
2F\	Et	2F/	Et	2a\	Et
4E\	V-	4G/	V-	4g\	V-
!LO:TX:t=P:problem=kreska pseudotaktowa	!	!LO:TX:t=P:problem=kreska pseudotaktowa	!	!LO:TX:t=P:problem=kreska pseudotaktowa	!
4E\	-nam	4G/	-nam	4g\	-nam
=106	=106	=106	=106	=106	=106
2F\	ſan-	2A/	ſan-	2f\	ſan-
2D/	-ctam	2F/	-ctam	2a\	-ctam
2C/	Ca-	2c\	Ca-	2e\	Ca-
2.G\	-tho-	2.c\	-tho-	2.g\	-tho-
=107-	=107-	=107-	=107-	=107-	=107-
.	.	.	.	.	.
!	!	!LO:N:acc=#	!	!	!
4G\	-li-	4Bn\	-li-	4g\	-li-
!LO:TX:t=P:problem=kreska pseudotaktowa	!	!LO:TX:t=P:problem=kreska pseudotaktowa	!	!LO:TX:t=P:problem=kreska pseudotaktowa	!
2C;/	-cam	2c;\	-cam	2e;\	-cam
!	!	!LO:PB:g=original	!	!	!
2F\	et	2F/	et	2a\	et
4E\	A-	4G/	A-	4g\	A-
!	!	!LO:TX:t=P:problem=kreska pseudotaktowa	!	!LO:TX:t=P:problem=kreska pseudotaktowa	!
4F\	-po-	4A/	-po-	4f\	-po-
=108-	=108-	=108	=108	=108	=108
4BB-/	-ſto-	4B-/	-ſto-	4d\	-ſto-
4C/	-li-	4A/	-li-	4e\	-li-
4D/	-cam	4G/	-cam	4f\	-cam
!LO:TX:t=P:problem=kreska pseudotaktowa	!	!LO:TX:t=P:problem=kreska pseudotaktowa	!	!	!
4BB-/	Ec-	4F/	Ec-	4f\	Ec-
!LO:LB:g=original	!	!	!	!LO:LB:g=original	!
2.C/	-cle-	2.G/	-cle-	2.f\	-cle-
4C/	-ſi-	4F/	-ſi-	4e\	-ſi-
=109-	=109-	=109-	=109-	=109-	=109-
!LO:TX:t=P:problem=kreska pseudotaktowa	!	!LO:TX:t=P:problem=kreska pseudotaktowa	!	!LO:TX:t=P:problem=kreska pseudotaktowa	!
1FF;	-am	1F;	-am	1f;	-am
[2.F\	Con-	2.c\	Con-	2.f\	Con-
4F]	.	4c\	-fi-	4f\	-fi-
=110-	=110-	=110-	=110-	=110-	=110-
4.F\	-fi-	2c\	-te-	2f\	-te-
8F\	-te-	.	.	.	.
!LO:TX:t=P:problem=kreska pseudotaktowa	!	!LO:TX:t=P:problem=kreska pseudotaktowa	!	!	!
2BB-/	-or	2d\	-or	(4d\	-or
!	!	!	!	!LO:TX:t=P:problem=kreska pseudotaktowa	!
.	.	.	.	4e\)	.
1FF	V-	1c	V-	(4f\	V-
.	.	.	.	4g\)	.
.	.	.	.	2a\	-num
=111-	=111-	=111-	=111-	=111-	=111-
2GG/	-num	2B-\	-num	2g\	bap-
!	!	!	!	!LO:TX:t=P:problem=kreska pseudotaktowa	!
(4AA/	bap-	2A/	bap-	2f\	-ti-
4BB-/)	.	.	.	.	.
1C	-ti-	1G	-ti-	(2f\	.
.	.	.	.	2e\)	.
=112-	=112-	=112-	=112-	=112-	=112-
!LO:TX:t=P:problem=kreska pseudotaktowa	!	!LO:TX:t=P:problem=kreska pseudotaktowa	!	!LO:TX:t=P:problem=kreska pseudotaktowa	!
1FF;	-Zma	1F;	-Zma	1f;<	-Zma
2F\	in	2c\	in	2.a\	in
2F\	re-	2A\	re-	.	.
.	.	.	.	4a\	re-
=113-	=113-	=113-	=113-	=113-	=113-
(4E-X/	-miſ-	2B-\	-miſ-	(4g\	-miſ-
4D/)	.	.	.	4f\)	.
!LO:TX:t=P:problem=kreska pseudotaktowa	!	!LO:TX:t=P:problem=kreska pseudotaktowa	!	!LO:TX:t=P:problem=kreska pseudotaktowa	!
2C/	-si-	2c\	-si-	2e-X\	-si-
2BB-/	-o-	2d\	-o-	2f\	-o-
(4F\	-nem	2c\	-nem	(4a\	-nem
!	!	!	!	!LO:TX:t=P:problem=kreska pseudotaktowa	!
4E-\)	.	.	.	4g\)	.
=114-	=114-	=114-	=114-	=114	=114
!	!	!LO:LB:g=original	!	!	!
2D/	pec-	2f\	pec-	2f\	pec-
!LO:TX:t=P:problem=kreska pseudotaktowa	!	!LO:TX:t=P:problem=kreska pseudotaktowa	!	!LO:TX:t=P:problem=kreska pseudotaktowa	!
2C/	-ca-	2e\	-ca-	2g\	-ca-
!	!	!	!	!LO:LB:g=original	!
1G	-to-	1d	-to-	4g\	-to-
.	.	.	.	4a\	.
.	.	.	.	4g\	.
.	.	.	.	4f\	.
=115-	=115-	=115-	=115-	=115-	=115-
!LO:TX:t=P:problem=kreska pseudotaktowa	!	!LO:TX:t=P:problem=kreska pseudotaktowa	!	!LO:TX:t=P:problem=kreska pseudotaktowa	!
1C;	-rum	1c;	-rum	1e;	-rum
!LO:LB:g=original	!	!	!	!	!
2.F\	Et	2.c\	et	2.a\	Et
4F\	ex-	4c\	ex-	4a\	ex-
=116-	=116-	=116-	=116-	=116-	=116-
2F\	-pe-	2c\	-pe-	2a\	-pe-
!LO:TX:t=P:problem=kreska pseudotaktowa	!	!LO:TX:t=P:problem=kreska pseudotaktowa	!	!LO:TX:t=P:problem=kreska pseudotaktowa	!
2BB-/	-cto	2d\	-cto	2f\	-cto
2.FF/	re-	2.c\	re-	2.f\	re-
4FF/	-ſur-	4c\	-ſur-	4f\	-ſur-
=117-	=117-	=117-	=117-	=117-	=117-
2GG/	-re-	2B-\	-re-	(4d\	-re-
.	.	.	.	4e\)	.
!	!	!LO:TX:t=P:problem=kreska pseudotaktowa	!	!LO:TX:t=P:problem=kreska pseudotaktowa	!
(4AA/	-cti-	2A/	-cti-	2f\	-cti-
4BB-/)	.	.	.	.	.
1C	-o-	1G	-o-	(2f\	-o-
.	.	.	.	2e\)	.
=118-	=118-	=118-	=118-	=118-	=118-
!LO:TX:t=P:problem=kreska pseudotaktowa	!	!LO:TX:t=P:problem=kreska pseudotaktowa	!	!LO:TX:t=P:problem=kreska pseudotaktowa	!
1FF;	-nem	1F;	-nem	1f	-nem
2.F\	Mor-	2.A/	Mor-	2.f\	Mor-
!	!	!LO:TX:t=P:problem=kreska pseudotaktowa	!	!	!
4F\	-tu-	4B-/	-tu-	4f\	-tu-
=119-	=119-	=119-	=119-	=119-	=119-
1C	-o-	1G	-o-	2f\	-o-
!	!	!	!	!LO:TX:t=P:problem=kreska pseudotaktowa	!
.	.	.	.	2e\	.
!LO:TX:t=P:problem=kreska pseudotaktowa	!	!LO:TX:t=P:problem=kreska pseudotaktowa	!	!LO:TX:t=P:problem=kreska pseudotaktowa	!
1FF;	-rum	1F;	-rum	1f;	-rum
=120	=120	=120	=120	=120	=120
2F\	Et	2F/	Et	2a\	Et
!LO:TX:t=P:problem=kreska pseudotaktowa	!	!LO:TX:t=P:problem=kreska pseudotaktowa	!	!	!
2A\	Vi-	2c\	Vi-	(4f\	Vi-
!	!	!	!	!LO:TX:t=P:problem=kreska pseudotaktowa	!
.	.	.	.	4e\)	.
!	!	!	!	!LO:LB:g=original	!
2B-\	-tam	2d\	-tam	(4d\	-tam
.	.	.	.	4e\)	.
!	!	!	!	!LO:TX:t=P:problem=kreska pseudotaktowa	!
2A\	Ven-	2c\	Ven-	2f\	Ven-
=121-	=121-	=121-	=121-	=121	=121
!LO:N:acc=#	!	!	!	!	!
2Bn\	-tu-	2f\	-tu-	2d\	-tu-
!LO:TX:t=P:problem=kreska pseudotaktowa	!	!LO:TX:t=P:problem=kreska pseudotaktowa	!	!	!
2c\	-ri	2e\	-ri	(4e\	-ri
.	.	.	.	4f\)	.
!	!	!LO:LB:g=original	!	!	!
2.G\	ſae-	2.d\	Sae-	2.g\	ſae-
4G\	-cu-	4c\	-cu-	4g\	-cu-
=122-	=122-	=122-	=122-	=122-	=122-
!LO:TX:t=P:problem=kreska pseudotaktowa	!	!LO:TX:t=P:problem=kreska pseudotaktowa	!	!LO:TX:t=P:problem=kreska pseudotaktowa	!
1C;	-li	1c;	-li	1e;	-li
!LO:LB:g=original	!	!	!	!	!
4F\	A-	2c\	A-	4a\	A-
4E\	.	.	.	4g\	.
4D\	.	2c\	-men	4f\	.
!LO:TX:t=P:problem=kreska pseudotaktowa	!	!	!	!LO:TX:t=P:problem=kreska pseudotaktowa	!
4C\	.	.	.	4e\	.
=123	=123	=123-	=123-	=123	=123
4BB-/	.	1d	a-	4d\	.
4C/	.	.	.	4e\	.
4D/	.	.	.	4f\	.
!LO:TX:t=P:problem=kreska pseudotaktowa	!	!	!	!LO:TX:t=P:problem=kreska pseudotaktowa	!
4E/	.	.	.	4g\	.
!	!	!LO:TX:t=P:problem=kreska pseudotaktowa	!	!	!
4F\	.	1c	-men	4a\	.
8E\L	.	.	.	8g\L	.
8D\J	.	.	.	8f\J	.
4C\	.	.	.	4e\	.
!LO:TX:t=P:problem=kreska pseudotaktowa	!	!	!	!LO:TX:t=P:problem=kreska pseudotaktowa	!
4D\	.	.	.	4f\	.
=124	=124	=124-	=124-	=124	=124
4E\	.	(2B-\	a-	2g\	.
4C/	.	.	.	.	.
4F\	.	2A/)	.	1f	.
!LO:TX:t=P:problem=kreska pseudotaktowa	!	!	!	!	!
4AA/	.	.	.	.	.
4BB-/	.	1G	.	.	.
4GG/	.	.	.	.	.
2C/	.	.	.	2e\	.
=125-	=125-	=125-	=125-	=125-	=125-
!LO:TX:t=P:problem=kreska pseudotaktowa	!	!LO:TX:t=P:problem=kreska pseudotaktowa	!	!LO:TX:t=P:problem=kreska pseudotaktowa	!
1FF;	-men	1F;	-men	1f;<	-men
4F\	A-	2c\	a-	4a\	A-
4E-X\	.	.	.	4g\	.
!	!	!LO:TX:t=P:problem=kreska pseudotaktowa	!	!	!
4D\	.	2c\	-men	4f\	.
!LO:TX:t=P:problem=kreska pseudotaktowa	!	!	!	!	!
4C\	.	.	.	4e\	.
=126	=126	=126	=126	=126-	=126-
*	*	*	*ij	*	*
!	!	!	!	!LO:TX:t=P:problem=kreska pseudotaktowa	!
4BB-/	.	1d	a-	1d	.
4C/	.	.	.	.	.
4BB-/	.	.	.	.	.
!LO:TX:t=P:problem=kreska pseudotaktowa	!	!	!	!	!
4AA/	.	.	.	.	.
!	!	!	!	!LO:LB:g=original	!
2GG/	.	1B-	-men	1g	.
!LO:TX:t=P:problem=kreska pseudotaktowa	!	!	!	!	!
2G\	.	.	.	.	.
=127	=127	=127-	=127-	=127-	=127-
2F\	.	(4c\	a-	2a\	.
.	.	4d\)	.	.	.
!LO:TX:t=P:problem=kreska pseudotaktowa	!	!	!	!	!
2C/	.	2e-X\	-men	2.g\	.
1G	.	1d	a-	.	.
.	.	.	.	4a\	.
.	.	.	.	4g\	.
.	.	.	.	4f\	.
=128-	=128-	=128-	=128-	=128-	=128-
!LO:TX:t=P:problem=kreska pseudotaktowa	!	!LO:TX:t=P:problem=kreska pseudotaktowa	!	!LO:TX:t=P:problem=kreska pseudotaktowa	!
1C;	-men	1c;	-men	1e;	-men
!LO:LB:g=original	!	!	!	!	!
*	*	*	*Xij	*	*
2BB-/	A-	2f\	A-	2d\	A-
!LO:TX:t=P:problem=kreska pseudotaktowa	!	!	!	!LO:TX:t=P:problem=kreska pseudotaktowa	!
2C/	.	2e-X\	.	2e-X\	.
=129	=129	=129-	=129-	=129	=129
4D\	.	1d	.	4f\	.
4C\	.	.	.	4e\	.
4D\	.	.	.	4f\	.
4E\	.	.	.	4g\	.
!LO:TX:t=P:problem=kreska pseudotaktowa	!	!LO:TX:t=P:problem=kreska pseudotaktowa	!	!LO:TX:t=P:problem=kreska pseudotaktowa	!
1F	-men	1c;<	-men	1a;<	-men
=130	=130	=130	=130	=130	=130
2.BB-/	A-	2.d\	A-	2.f\	A-
4FF/	.	4c\	.	4a\	.
!	!	!LO:LB:g=original	!	!	!
2GG/	.	2B-\	.	4d\	.
.	.	.	.	4e\	.
!	!	!LO:TX:t=P:problem=kreska pseudotaktowa	!	!LO:TX:t=P:problem=kreska pseudotaktowa	!
4AA/	.	2A/	.	2f\	.
!LO:TX:t=P:problem=kreska pseudotaktowa	!	!	!	!	!
4BB-/	.	.	.	.	.
=131	=131	=131	=131	=131	=131
1C	.	1G	.	(2f\	.
.	.	.	.	2e\)	.
1FF;	-men	1F;	-men	1f;<	-men
==	==	==	==	==	==
*-	*-	*-	*-	*-	*-
!!!system-decoration: [(s1,s2,s3)]
!!!RDF**kern: > = above
!!!RDF**kern: < = below
!!!ENC: Kamil Watkowski
!!!END: 2021-07-08
!!!YEC: Copyright 2022 Narodowy Instytut Fryderyka Chopina (https://polishscores.org)
!!!YEM: Licence CC BY 4.0 (https://creativecommons.org/licenses/by/4.0)
